X:1
T: The High Lodge
C:Muriel A Johnstone
R:Jig
%Q:180
K:Am
M:6/8
L:1/16
|:a2|e2A2A2 c2B2A2|B2A2G2 B2d2g2|e2A2A2 c2d2e2|g2e2g2 a4g2|
e2A2A2 c2B2A2|B2A2G2 B2d2g2|e2A2A2 c2d2e2|g2e2g2 a4a2|
abc'2b2 a2g2e2|d2B2G2 G4B2|c2d2e2 d4c2|B2A2G2 G4g2|
abc'2b2 a2g2e2|gab2a2 g2e2d2|e2A2A2 c2d2e2|g2e2g2 a4:|
